X:1
T:Title
%%score ( 1 2 ) { 3 | 4 }
L:1/8
Q:1/4=90
M:4/4
K:Ab
V:1 treble nm="Grand Piano, Soprano"
V:2 treble 
V:3 bass nm="Choir Pad, Run Not the Risk, E. B. McClurd"
V:4 bass 
V:1
 [Ec][DB][CA][CA]- [CA]4 | [CA][Ec][CA][Ec]- [Ec]4 | [CA][DF][CA][CE]- [CE]4 | %3
w: By~E.~B.~McClurd * * * *|||
 [EA][EB][Ec][EB]- [EB]4 | [Ge][Ge][Fd][Ec]- [Ec]4 | [CA][DB][CA][Fd]- [Fd]4 | %6
w: |||
 [Fd][Ec][CA][Ec]- [Ec]4 | [EA][DB][DB]A- [EA-][FA-][FA-][EA] | EE .F2 eeee | EC .D2 eecA | %10
w: ||||
 EA .E2 AAAA | [Fd][Ad][Fd]B BBcd | z2 z =c- c4 | AF .A2 CCCC | z2 z =c- c4 | z2 z A- A4- | %16
w: ||||||
 A6 z2 |] %17
w: |
V:2
 x8 | x8 | x8 | x8 | x8 | x8 | x8 | z2 z C z4 | z2 z A- A4 | z2 z E- E4 | z2 z F- F4 | z2 z E- E4 | %12
 cc ._c2 AAAA | z2 z E- E4 | AB ._c2 AAAA | [EA][EA][EB]E EFFE- | E6 z2 |] %17
V:3
 z4 E,E,E,E, | z4 A,A,A,A, | z4 A,A,A,A, | G,A,A,G, G,G,G,G, | z4 A,A,A,A, | z4 A,A,A,A, | %6
 z4 A,A,A,A, | A,G,G,A,[K:treble] CDDC | CCDC- C4 | z4[K:bass] A,A,A,A, | CA,CD- D4 | %11
 DF,A,G,- G,4 | z4 EEEE | z4 A,A,A,A, | z4[K:treble] EEEE | ECDC CDDC- | C6 z2 |] %17
V:4
 z4 A,,A,,A,,A,, | z4 A,,A,,A,,A,, | z4 A,,A,,A,,A,, | B,,G,,A,,E, E,E,E,E, | z4 A,,A,,A,,A,, | %5
 z4 D,D,D,D, | z4 A,,A,,A,,A,, | C,E,E,A,,- A,,4 | z4 A,A,A,A, | CA,B,C- C4 | z4 D,D,D,D, | %11
 D,D,D,E, E,E,E,E, | z4 A,A,A,A, | z4 A,,C,F,A,, | z4 A,A,A,A, | C,E,E,A,,- A,,4- | A,,6 z2 |] %17

